!!!!SEGMENT: pl-gd--ee-2628--006-003_stabile-annibale--il-terzo-libro-de-madrigali-a-cinque-voci-venga-himeneo.krn
!!!cenid: 15xx:1070
!!!COM: Stabile, Annibale
!!!COM-rismID: pe30009662
!!!CDT: ~1535-1595/04
!!!CNT: Italian
!!!GTL: Il terzo libro de madrigali a cinque voci
!!!OTL: Venga Himeneo
!!!OMV: 003
!!!PDT: 1585
!!!AGN:
!!!YEC: Copyright 2022 Narodowy Instytut Fryderyka Chopina (https://polishscores.org)
!!!YEM: License CC-BY-4.0 (https://creativecommons.org/licenses/by/4.0)
!!!SMS-siglum: PL-GD
!!!SMS-shelfmark: Ee 2628
!!!SMS-variant:
!!!SMS-altvar:
!!!SMS-shelfwork: 006-003 G
!!!NIFC-rismSourceID: 1001203361
!!!NIFC-rismChildID: 990060530
!!!NIFC-islandoraID: pl-gd:66139
!!!URL-pdf-islandora: https://repozytorium.nifc.pl/islandora/object/pl-gd%3A66139/datastream/PDF/view
!!!URL-scan: https://polish.musicsources.pl/pl/lokalizacje/galeria/klocki-introligatorskie/673 @EN{Scan on Polish Music Sources Website} @PL{Skany w portalu Dziedzictwo Muzyki Polskiej w otwartym dostępie}
!!!IIIF:
!!!ONB-nifc: UWAGA: Canto: s. 90-101, Tenore: s. 246-257, Basso: s. 402-413, Quinto: s. 724-735. Dla głosu Alto proszę skorzystać z https://pbc.gda.pl/dlibra/publication/87582/edition/79411/content, str. 25-48. Uwaga: utwory podzielone wg spisu treści dostępnych na końcu ksiąg – proszę sprawdzać sąsiednie tytuły. Głos Quinto proszę umieszczać wg ambitusu (może się różnić w zależności od utworu).
!!!AIN: 1 alto 1 bass 1 soprn 1 tenor 1 vox
!!!key: a
**kern	**text	**kern	**text	**kern	**text	**kern	**text	**kern	**text
*part5	*	*part4	*	*part3	*	*part2	*	*part1	*
*staff5	*	*staff4	*	*staff3	*	*staff2	*	*staff1	*
*I"BASSO	*	*I"TENORE	*	*I"ALTO	*	*I"QUINTO	*	*I"CANTO	*
*I'B	*	*I'T	*	*I'A	*	*I'V	*	*I'S	*
*ICvox	*	*ICvox	*	*ICvox	*	*ICvox	*	*ICvox	*
*Ibass	*	*Itenor	*	*Ialto	*	*Ivox	*	*Isoprn	*
*clefF3	*	*clefC3	*	*clefC2	*	*clefG2	*	*clefG2	*
*k[]	*	*k[]	*	*k[]	*	*k[]	*	*k[]	*
*a:	*	*a:	*	*a:	*	*a:	*	*a:	*
*M2/1	*	*M2/1	*	*M2/1	*	*M2/1	*	*M2/1	*
*met(C)	*	*met(C)	*	*met(C)	*	*met(C)	*	*met(C)	*
=1-	=1-	=1-	=1-	=1-	=1-	=1-	=1-	=1-	=1-
2A\	VEn-	2e\	VEn-	2cc\	VEn-	2a/	VEn-	2ee\	VEn-
4G#X\	-ga	4e\	-za Hi-	4b\	-ga	4b/	-ga	4ee\	-ga
4A\	Hime-	4e\	-me-	4a\	Hime-	4cc\	Hime-	4ee\	Hi-
2E/	-neo	2e\	-neo	2g#X\	-neo	2b/	-neo	2ee\	-meneo
2A\	ch'a-	2c#X/	ch'a-	2a\	ch'a-	2a/	ch'a-	2ee\	ch'a-
=2-	=2-	=2-	=2-	=2-	=2-	=2-	=2-	=2-	=2-
2D/	-mo-	2d\	-mo-	2f\	-mo-	2a/	-mo-	2dd\	-mo-
4A\	-re	4e\	-re	2e/	-re	2a/	-re	4cc#X\	-re
4A\	Se-	4a\	Se-	.	.	.	.	4cc#\	Se-
4B\	-co	4g\	-co	4r	.	1r	.	4dd\	-co
4c#X\	con-	4e\	con-	4a\	Se-	.	.	4ee\	con-
2d\	-du-	2f#X\	-du-	4a\	-co	.	.	2dd\	-du-
.	.	.	.	4a\	con-	.	.	.	.
*custos:G	*	*	*	*	*	*	*	*custos:dd	*
!LO:LB:g=original	!	!	!	!	!	!	!	!LO:LB:g=original	!
=3-	=3-	=3-	=3-	=3-	=3-	=3-	=3-	=3-	=3-
4Gny\	-ca	2g\	-ca	4b\	-du-	0r	.	4dd\	-ca
2cny\	ſan-	.	.	4gny\	-ca	.	.	2ee\	ſen-
*	*	*custos:g	*	*custos:cc	*	*	*	*	*
!	!	!LO:LB:g=original	!	!LO:LB:g=original	!	!	!	!	!
.	.	4.g\	ſen-	4cc\	ſen-	.	.	.	.
4G\	-za	.	.	4b\	-za	.	.	4dd\	-za
.	.	8fny\	.	.	.	.	.	.	.
2A\	ſtra-	4e\	-za	4.a\	ſtra-	.	.	8ccny\	ſtra-
.	.	.	.	.	.	.	.	8dd\	.
.	.	4e\	ſtra-	.	.	.	.	8ee\	.
.	.	.	.	8g\	.	.	.	8cc\	.
2D/	-li et	4a\	-li	8f\	.	.	.	8dd\	.
.	.	.	.	8e\	.	.	.	8cc\	.
.	.	4f\	et	8d/	.	.	.	8b/	.
.	.	.	.	8c/	.	.	.	8a/	.
=4-	=4-	=4-	=4-	=4-	=4-	=4-	=4-	=4-	=4-
2E/	ar-	1e	ar-	4B/	.	2r	.	4g#X/	.
.	.	.	.	4A/	-li et	.	.	4a/	-li et
2E/	-co	.	.	2B/	ar-	2ee\	A-	2g#X/	ar-
2r	.	4e\	-co	2A/	-co	2cc#X\	-pra egli	2a/	-co
.	.	2e\	A-	.	.	.	.	.	.
2A\	Apra	.	.	1a\	A-	2cc#\	ho-	4r	.
.	.	2A/	-pra	.	.	.	.	4ee\	A-
*	*	*	*	*	*	*custos:dd	*	*custos:ff#	*
!	!	!	!	!	!	!LO:LB:g=original	!	!LO:LB:g=original	!
=5-	=5-	=5-	=5-	=5-	=5-	=5-	=5-	=5-	=5-
2D/	egli	.	.	.	.	2.dd\	-mai	4ff#X\	-pra
.	.	4d\	egli ho-	.	.	.	.	4ff#\	egli ho-
2G\	ho-	2B/	-mai	2.g\	-pra egli	.	.	4gg\	-mai
.	.	.	.	.	.	4b/	del-	4dd\	del-
1E	-mai	4r	.	.	.	2b/	-le	2.ee\	-le
.	.	4e\	del-	4g\	ho-	.	.	.	.
*	*	*custos:e	*	*	*	*	*	*	*
!	!	!LO:LB:g=original	!	!	!	!	!	!	!
.	.	4e\	-le	2e/	-mai	2g#X/	dol-	.	.
.	.	4B/	dol-	.	.	.	.	4ee\	dol-
*	*	*	*	*custos:A	*	*	*	*	*
!	!	!	!	!LO:LB:g=original	!	!	!	!	!
=6-	=6-	=6-	=6-	=6-	=6-	=6-	=6-	=6-	=6-
4r	.	4.cny/	-cez-	2A/	del-	4.a/	-coz-	4.ee\	-coz-
4A\	del-	.	.	.	.	.	.	.	.
.	.	8d\	-ze il	.	.	8b\	.	8dd\	.
*custos:A	*	*	*	*	*	*	*	*	*
!LO:LB:g=original	!	!	!	!	!	!	!	!	!
4A\	-le	2e\	var-	4a\	-le	8ccny\	.	4cc\	.
.	.	.	.	.	.	8dd\	.	.	.
4E/	dol-	.	.	4g\	dol-	2ee\	.	4b/	-ze il
4.F/	-cez-	1A	-co	4f\	-cez-	.	.	1a	var-
.	.	.	.	4f\	-ze il	4dd\	-ze il	.	.
8G\	-ze il	.	.	.	.	.	.	.	.
2A\	var-	.	.	2e/	var-	2cc#X\	var-	.	.
=7-	=7-	=7-	=7-	=7-	=7-	=7-	=7-	=7-	=7-
1D	-co	2r	.	2d/	-co	2dd\	-co	2a/	-co
.	.	2d\	Gli	2f#X\	Gli	2dd\	Gli al-	2a/	Gli al-
*	*	*	*	*	*	*custos:ee	*	*	*
!	!	!	!	!	!	!LO:LB:g=original	!	!	!
1r	.	4c/	altri	4g\	altri	4ee\	-tri	4cc\	-tri
.	.	4A/	vez-	4a\	vez-	4ee\	vez-	4cc\	vez-
.	.	2d\	-zo-	2a\	-zo-	2ff\	-zo-	2dd\	-zo-
=8-	=8-	=8-	=8-	=8-	=8-	=8-	=8-	=8-	=8-
0r	.	2A/	-ſi	2a\	-ſi	4ee\	-ſi	4cc\	-ſi
.	.	.	.	.	.	8ee\	par-	8cc\	par-
.	.	.	.	.	.	8ff\	-go-	8dd\	-go-
*	*	*	*	*	*	*	*	*custos:ee	*
!	!	!	!	!	!	!	!	!LO:LB:g=original	!
.	.	4r	.	4r	.	2.gg\	-let-	2.ee\	-let-
.	.	8e\	par-	8g\	par-	.	.	.	.
.	.	8f\	-golet-	8a\	-go-	.	.	.	.
.	.	4g\	-ti	4b#X\	-letti	.	.	.	.
.	.	4a\	e	4a\	e	4ee\	-ti e	4cc\	-ti e
.	.	2e\	gra-	2g#X\	gra-	2ee\	gra-	2b/	gra-
=9-	=9-	=9-	=9-	=9-	=9-	=9-	=9-	=9-	=9-
2r	.	2e\	-ti	2gny\	-ti	2ee\	-ti	2b/	-ti
2A\	Di	2e\	Di	2a\	Di	2cc#X\	Di	2ee\	Di
*	*	*custos:d	*	*custos:a	*	*	*	*	*
!	!	!LO:LB:g=original	!	!LO:LB:g=original	!	!	!	!	!
2D/	ver-	8d\	ver-	2a\	ver-	2dd\	ver-	2ffny\	ver-
.	.	8e\	.	.	.	.	.	.	.
.	.	8f\	.	.	.	.	.	.	.
.	.	8d\	.	.	.	.	.	.	.
4C#X/	-de mir-	4a\	.	4a\	-de	4ee\	-de	4ee\	-de
2D/	-to	4A/	-de	2a\	mir-	2ff\	mir-	2dd\	mir-
=10-	=10-	=10-	=10-	=10-	=10-	=10-	=10-	=10-	=10-
.	.	4d\	mi-	.	.	.	.	.	.
4A\	or-	4e\	-rto or-	4a\	-to or-	4ee\	-to	4cc\	-to or-
2E/	-na-	2e\	-na-	2g#X\	-na-	2ee\	orna-	2b/	-na-
1A	-ti	1e	-ti	1a	-ti	2cc#X\	-ti	2a/	-ti
.	.	.	.	.	.	4cc#\	Spar-	4a/	Spar-
.	.	.	.	.	.	8cc#\	-gan	8a/	-gan
.	.	.	.	.	.	8dd\	per	8b/	per
*	*	*	*	*	*	*custos:ee	*	*	*
!	!	!	!	!	!	!LO:LB:g=original	!	!	!
=11-	=11-	=11-	=11-	=11-	=11-	=11-	=11-	=11-	=11-
1r	.	4A/	Spar-	2r	.	2.ee\	l'a-	4.cc#X\	l'ar-
.	.	8A/	-gan	.	.	.	.	.	.
.	.	8B/	per	.	.	.	.	8dd\	-ia i
.	.	4c#X/	l'a-	4a\	Spar-	.	.	2ee\	lor
.	.	4c#/	-ria i	8a\	-gan	4e/	-ria i	.	.
.	.	.	.	8gny\	per	.	.	.	.
4D/	Spar-	2d\	lor	4.f#X\	l'ar-	2a/	lor	2r	.
8D/	-gan	.	.	.	.	.	.	.	.
!x	!	!	!	!	!	!	!	!	!
8E/	per	.	.	8g\	-ia i	.	.	.	.
*custos:F#	*	*	*	*	*	*	*	*	*ij
!LO:LB:g=original	!	!	!	!	!	!	!	!	!
4F#X/	l'a-	2r	.	2a\	lor	2r	.	4dd\	Spar-
4F#/	-ria	.	.	.	.	.	.	8dd\	-gan
.	.	.	.	.	.	.	.	8cc#\	per
*	*	*	*ij	*	*	*	*ij	*custos:b	*
!	!	!	!	!	!	!	!	!LO:LB:g=original	!
=12-	=12-	=12-	=12-	=12-	=12-	=12-	=12-	=12-	=12-
2G\	lor	4B/	Spar-	4g\	ſo-	4dd\	Spar-	4b/	l'ar-
.	.	8B/	-gan	2d/	-aui	8dd\	-gan	4b/	.
.	.	8cny/	per	.	.	8ee\	.	.	.
2D/	ſoa-	4d\	l'a-	.	.	4ff#X\	per	4a/	-ia
*	*	*	*	*	*	*	*	*	*Xij
.	.	4d\	-ria	4A/	.	4ff#\	a-	4a/	ſoa-
*	*	*custos:G	*	*	*	*	*	*	*
!	!	!LO:LB:g=original	!	!	!	!	!	!	!
2Cny/	-ui	4G/	i	2e/	can-	2gg\	-ria	4.ccny\	.
*	*	*	*Xij	*	*	*	*	*	*
.	.	4g\	ſoa-	.	.	.	.	.	.
.	.	.	.	.	.	.	.	8dd\	.
2C/	.	8g\	.	2c/	-ti	4r	.	8ee\	.
.	.	8f\	.	.	.	.	.	8dd\	.
*	*	*	*	*	*	*	*Xij	*	*
.	.	8e\	.	.	.	4ee\	i	8cc\	.
.	.	8d\	.	.	.	.	.	8b\	.
=13-	=13-	=13-	=13-	=13-	=13-	=13-	=13-	=13-	=13-
2.Fny/	can-	4c/	.	4r	.	2.ffny\	lor	4.a/	.
.	.	4A/	-ui	4c/	i	.	.	.	.
.	.	.	.	.	.	.	.	8gny/	.
*	*	*	*	*custos:c	*	*	*	*	*
!	!	!	!	!LO:LB:g=original	!	!	!	!	!
.	.	8A/	can-	2.c/	lor	.	.	8f/	.
.	.	8B/	.	.	.	.	.	8g/	.
8E/	.	8c\	.	.	.	4ff\	ſoa-	8a/	.
8D/	.	8d\	.	.	.	.	.	8b/	.
1C	.	8e\	.	.	.	8ee\	.	8cc\	.
.	.	8d\	.	.	.	8ff\	.	8dd\	.
.	.	8c\	.	4G/	ſoa-	8gg\	.	8ee\	.
.	.	8d\	.	.	.	8ff\	.	8ff\	.
.	.	8e\	.	2.c/	-ui	8ee\	.	4gg\	.
.	.	8f\	.	.	.	8dd\	.	.	.
.	.	8g\	.	.	.	8ccny\	.	4ee\	-ui
.	.	8e\	.	.	.	8b\	.	.	.
=14-	=14-	=14-	=14-	=14-	=14-	=14-	=14-	=14-	=14-
1D	-ti	4f#X\	.	.	.	4a/	.	1dd	can-
.	.	4.g\	.	4B/	.	4gny/	-ui	.	.
*	*	*	*	*	*	*custos:a	*	*	*
!	!	!	!	!	!	!LO:LB:g=original	!	!	!
.	.	.	.	2A/	can-	2a/	can-	.	.
.	.	8f#X\	.	.	.	.	.	.	.
.	.	4f#\	.	.	.	.	.	.	.
0r	.	2g\	-ti	4G/	-ti	2b/	-ti	1dd	-ti
.	.	.	.	4G/	e	.	.	.	.
*	*	*custos:G	*	*	*	*	*	*	*
!	!	!LO:LB:g=original	!	!	!	!	!	!	!
.	.	2G/	e	2.g\	l'au-	2b/	e	.	.
=15-	=15-	=15-	=15-	=15-	=15-	=15-	=15-	=15-	=15-
.	.	4.c/	l'au-	.	.	4.ee\	l'au-	2r	.
.	.	.	.	4g\	-ra	.	.	.	.
.	.	8B/	-ra	.	.	8dd\	-ra	.	.
.	.	4c/	dol-	4g\	dol-	4ee\	dol-	2cc\	e
.	.	4A/	-ce	4a\	-ce	4ff\	-co	.	.
2r	.	2G/	ſpi-	2d/	ſpi-	2gg\	ſpi-	4.b/	l'au-
.	.	.	.	.	.	.	.	8a/	-ra
*	*	*	*	*	*	*	*	*custos:b	*
!	!	!	!	!	!	!	!	!LO:LB:g=original	!
4r	.	4G/	-ri	4d/	-ri	4gg\	-ri	4b/	dol-
4C/	e	4c/	e	4e/	e	4ee\	e	4cc\	-ce
=16-	=16-	=16-	=16-	=16-	=16-	=16-	=16-	=16-	=16-
4.F/	l'au-	2.c/	l'au-	4.a\	l'au-	4.ff\	l'au-	2.cc\	ſpi-
8E/	-ra	.	.	8g\	-ra	8gg\	-ra	.	.
4F/	dol-	.	.	4a\	dol-	4ff\	dol-	.	.
4D/	-ce	4d\	-ra	4bny\	-ce	4ff\	-ce	4f/	-ri
*custos:C	*	*	*	*	*	*	*	*	*
!LO:LB:g=original	!	!	!	!	!	!	!	!	!
2C/	ſpi-	2.e\	dol-	2cc\	ſpi-	2ee\	ſpi-	4g/	d'o-
.	.	.	.	.	.	.	.	4g/	-gn'in-
*	*	*	*	*custos:cc	*	*	*	*	*
!	!	!	!	!LO:LB:g=original	!	!	!	!	!
4C/	-ri	.	.	2cc\	-ri	4ee\	-ri	2g/	-tor-
2c\	d'o-	4e\	-ce	.	.	2ee\	d'og-	.	.
=17-	=17-	=17-	=17-	=17-	=17-	=17-	=17-	=17-	=17-
.	.	8A/	ſpi-	2r	.	.	.	2a/	-no
.	.	8B/	.	.	.	.	.	.	.
4A\	-gni'in-	8c/	.	.	.	4cc\	-n'in-	.	.
.	.	8A/	.	.	.	.	.	.	.
2G#X\	-tor-	4B/	.	4r	.	2b/	-tor-	2.ee\	d'o-
.	.	4B/	-ri	2e/	d'o-	.	.	.	.
*	*	*	*	*	*	*custos:a	*	*	*
!	!	!	!	!	!	!LO:LB:g=original	!	!	!
2A\	-no	4c/	d'o-	.	.	2a/	-no	.	.
.	.	4A/	-gn in-	4a\	-gn'in-	.	.	4cc\	-gn'in-
*	*	*custos:e	*	*	*	*	*	*	*
!	!	!LO:LB:g=original	!	!	!	!	!	!	!
2r	.	2e\	-tor-	2g#X\	-tor-	2r	.	2b/	-tor-
=18-	=18-	=18-	=18-	=18-	=18-	=18-	=18-	=18-	=18-
4r	.	2A/	-no	4a\	-no	1r	.	1a	-no
4A\	In	.	.	4e/	In	.	.	.	.
4d\	queſ-	2r	.	4fny\	queſ-	.	.	.	.
4d\	-to	.	.	4f\	-to	.	.	.	.
8c\	lie-	1r	.	8e/	lie-	4r	.	4r	.
8B\	.	.	.	8d/	.	.	.	.	.
8A\	.	.	.	8c/	.	4ee\	In	4a/	In
8Gny\	.	.	.	8B/	.	.	.	.	.
4F/	.	.	.	2A/	.	4ff\	queſ-	4dd\	queſ-
4D/	-to	.	.	.	.	4ff\	-to	4dd\	-to
=19-	=19-	=19-	=19-	=19-	=19-	=19-	=19-	=19-	=19-
4r	.	0r	.	2A/	-io	8ee\	lie-	8cc\	lie-
.	.	.	.	.	.	8dd\	.	8b\	.
*	*ij	*	*	*	*	*	*	*	*
4A\	In	.	.	.	.	8cc\	.	8a/	.
.	.	.	.	.	.	8b\	.	8g/	.
4d\	queſ-	.	.	4r	.	2a/	.	2f/	.
4d\	-to	.	.	4a\	a-	.	.	.	.
*custos:c	*	*	*	*	*	*	*	*	*
!LO:LB:g=original	!	!	!	!	!	!	!	!	!
8c\	lie-	.	.	4.cc\	-uen-	4a/	-to	4e/	-to
8B\	.	.	.	.	.	.	.	.	.
8A\	.	.	.	.	.	4a/	In	4ee\	In
8G\	.	.	.	8b\	-tu-	.	.	.	.
*	*	*	*	*	*	*	*	*custos:ff	*
!	!	!	!	!	!	!	!	!LO:LB:g=original	!
4F/	-to	.	.	4a\	-ro-	4dd\	queſ-	4ff\	queſ-
*	*Xij	*	*	*	*	*	*	*	*
4D/	a-	.	.	4a\	-ſo	4dd\	-to	4ff\	-to
*	*	*	*	*custos:a	*	*	*	*	*
!	!	!	!	!LO:LB:g=original	!	!	!	!	!
=20-	=20-	=20-	=20-	=20-	=20-	=20-	=20-	=20-	=20-
2.A\	-uen-	4r	.	2a\	gior-	8cc\	lie-	8ee\	lie-
.	.	.	.	.	.	8b\	.	8dd\	.
.	.	4e\	In	.	.	8a/	.	8cc\	.
.	.	.	.	.	.	8g/	.	8b\	.
.	.	4e\	queſ-	4A/	-no	1a	.	4cc\	.
4D/	-tu-	4fny\	-to	4d/	a-	.	.	4dd\	-to
2A\	-ro-	8e\	lie-	2.c/	-uen-	.	.	4.ee\	a-
.	.	8d\	.	.	.	.	.	.	.
.	.	8c\	.	.	.	.	.	.	.
.	.	8B/	.	.	.	.	.	8ee\	-uentu-
2F/	-ſo	4A/	.	.	.	2a/	-to	4ff\	-ro-
.	.	4a\	-to	8B/	.	.	.	4dd\	-ſo
.	.	.	.	8A/	.	.	.	.	.
=21-	=21-	=21-	=21-	=21-	=21-	=21-	=21-	=21-	=21-
1E	gior-	4.g\	auen-	4B/	.	4r	.	4.ee\	gior-
.	.	.	.	4B/	-tu-	4ee\	a-	.	.
.	.	8f\	-tu-	.	.	.	.	8dd\	.
*	*	*	*	*	*	*custos:gg	*	*	*
!	!	!	!	!	!	!LO:LB:g=original	!	!	!
.	.	4e\	-ro-	4c/	-ro-	4.gg\	-uen-	4cc\	.
.	.	4d\	-ſo	4d/	-ſo	.	.	4.b/	.
.	.	.	.	.	.	8ff\	-tu-	.	.
1E	-no	4c/	gior-	2e/	gior-	4ee\	-ro-	.	.
.	.	.	.	.	.	.	.	8a/	.
.	.	8B/	.	.	.	4ee\	-ſo	2a/	.
.	.	8A/	.	.	.	.	.	.	.
*	*	*custos:B	*	*	*	*	*	*	*
!	!	!LO:LB:g=original	!	!	!	!	!	!	!
.	.	2B/	.	2e/	-no	2ee\	gior-	.	.
.	.	.	.	.	.	.	.	4g#X/	.
=22-	=22-	=22-	=22-	=22-	=22-	=22-	=22-	=22-	=22-
4r	.	2A/	-no	4r	.	2cc#X\	-no	1a	-no
4A\	In	.	.	4e/	In	.	.	.	.
4d\	queſ-	2r	.	4f\	queſ-	2r	.	.	.
4d\	-to	.	.	4f\	-to	.	.	.	.
8c\	lie-	1r	.	8e/	lie-	4r	.	4r	.
8B\	.	.	.	8d/	.	.	.	.	.
8A\	.	.	.	8c/	.	4a/	In	4ee\	In
8G\	.	.	.	8B/	.	.	.	.	.
*custos:F	*	*	*	*	*	*	*	*custos:ff	*
!LO:LB:g=original	!	!	!	!	!	!	!	!LO:LB:g=original	!
4F/	.	.	.	2A/	.	4dd\	queſ-	4ff\	queſ-
4D/	-to	.	.	.	.	4dd\	-to	4ff\	-to
*	*	*	*	*custos:A	*	*	*	*	*
!	!	!	!	!LO:LB:g=original	!	!	!	!	!
=23-	=23-	=23-	=23-	=23-	=23-	=23-	=23-	=23-	=23-
4r	.	0r	.	2A/	-to	8ccny\	lie-	8ee\	lie-
.	.	.	.	.	.	8b\	.	8dd\	.
4A\	In	.	.	.	.	8a/	.	8cc\	.
.	.	.	.	.	.	8g/	.	8b\	.
4d\	queſ-	.	.	4r	.	2f/	.	2a/	.
4d\	-to	.	.	4a\	a-	.	.	.	.
8c\	lie-	.	.	4.cc\	-uen-	4e/	-to	4a/	-to
8B\	.	.	.	.	.	.	.	.	.
*	*	*	*	*	*	*	*	*	*ij
8A\	.	.	.	.	.	4ee\	In	4a/	In
8G\	.	.	.	8b\	-tu-	.	.	.	.
4F/	.	.	.	4a\	-ro-	4ff\	queſ-	4dd\	queſ-
4D/	-to	.	.	4a\	-ſo	4ff\	-to	4dd\	-to
*	*	*	*	*	*	*custos:ee	*	*	*
!	!	!	!	!	!	!LO:LB:g=original	!	!	!
=24-	=24-	=24-	=24-	=24-	=24-	=24-	=24-	=24-	=24-
2.A\	a-	4r	.	2a\	gior-	8ee\	lie-	8cc\	lie-
.	.	.	.	.	.	8dd\	.	8b\	.
.	.	4e\	In	.	.	8cc\	.	8a/	.
.	.	.	.	.	.	8b\	.	8gny/	.
.	.	4e\	queſ-	4A/	-no	4cc\	.	1a	.
4D/	-uentu-	4f\	-to	4d/	a-	4dd\	-to a-	.	.
2A\	-ro-	8e\	lie-	2.c/	-uen-	4.ee\	-uen-	.	.
.	.	8d\	.	.	.	.	.	.	.
.	.	8c/	.	.	.	.	.	.	.
.	.	8B/	.	.	.	8ee\	-tu-	.	.
2F/	-ſo	4A/	.	.	.	4ff\	-ro-	2a/	-to
.	.	4a\	-to	8B/	.	4dd\	-ſo	.	.
.	.	.	.	8A/	.	.	.	.	.
*	*	*	*	*	*	*	*	*	*Xij
=25-	=25-	=25-	=25-	=25-	=25-	=25-	=25-	=25-	=25-
0E	gior-	4.g\	auen-	4B/	.	4.ee\	gior-	4r	.
.	.	.	.	4B/	-tu-	.	.	4ee\	a-
.	.	8f\	-tu-	.	.	8dd\	.	.	.
.	.	4e\	-ro-	4c/	-ro-	4cc\	.	4.gg\	-uen-
.	.	4d\	-ſo	4d/	-ſo	4.b\	.	.	.
.	.	.	.	.	.	.	.	8ff\	-tu-
.	.	4c/	gior-	1e	gior-	.	.	4ee\	-ro-
.	.	.	.	.	.	8a/	.	.	.
.	.	8B/	.	.	.	2a/	.	4ee\	-ſo
.	.	8A/	.	.	.	.	.	.	.
.	.	2B/	.	.	.	.	.	2ee\	gior-
.	.	.	.	.	.	4g#X/	.	.	.
=26-	=26-	=26-	=26-	=26-	=26-	=26-	=26-	=26-	=26-
00AA	-no.	00A	-no.	00e	-no.	00a	-no.	00cc#X	-no.
==	==	==	==	==	==	==	==	==	==
*-	*-	*-	*-	*-	*-	*-	*-	*-	*-
!!!system-decoration: [(s1,s2,s3,s4,s5)]
!!!ENC: Berenika Jozajtis
!!!END: 2022-07-16
!!!ENC: Jan Barakat
!!!END: 2022-08-01
